X:1
T:Khvalitye imya Gospodie
T:П. И. Чаиковский, 1883
T:From Russian Orthodox Liturgy
T:Полиелей
T:Греческаго роспева Всенощное бдение, Opus 50, No. 8
T:Public Domain
T:Public Domain
T:Public Domain
T:Public Domain
T:Public Domain
T:Public Domain
T:Public Domain
T:Public Domain
C:Sergei Rakhmanninov
Z:Public Domain
%%score [ 1 2 3 4 ]
L:1/8
Q:1/4=108
M:4/4
K:G
V:1 treble nm="Дискант" snm="Д"
V:2 treble nm="Альт" snm="A."
V:3 treble-8 nm="Тенор" snm="Т"
V:4 bass nm="Бас" snm="Б"
V:1
"^Не скоро\nNot fast"!p!"^Khva-li - tye   i - mya Gos-pod-nye, khva-li-tye  ra  -  bi ________     Gos -   po    -     da,       ra - bi     Gos - po- da,""^Хва-ли- те   и - мя  Гос-под-не, хва-ли- те ра - би _______    Гос -  по    -    да,      ра-би    Гос - по-да," d2 | %1
 e4 d4 | d4 d2 d2 | d4 B2 c2 | d4 d2 c2 |!<(! (B3 A B2 c2)!<)! | d4 e4 |!f! f4 f2 f2 | e4 e2 e2 | %9
"^Гос - по - да,            Ал - ли-лу - и  -  а,                     Ал -  ли-лу-и  -  а,      Ал - ли - лу        -          и            -""^Gos -  po -  da,             Al   -  li - lu  - i   -   a,                        Al  -   li - lu - i  -   a,        Al  -  li  -  lu          -           i              -"!>(! d6 d2!>)! | %10
!p! d6 z2 |!mf! d3 c B2 A2 | G2 z2 z4 |!f! g3 f e2 d2 | c4 c2 d2 | e8 |!>(! (d6 c2)!>)! | %17
"^- а,    Ал-ли - лу - и - а,      Ал     -    ли - лу  -   и  - а,   Ал-ли-лу   -  и   -  а.           Бла-го-сло-вен Гос-подь от Си-""^-  a,     Al - li   - lu   - i  - a,       Al       -      li  -  lu   -    i  -  a,    Al - li - lu    -   i    -  a.             Bla- go- slo-vyen God-pod'  ot  Si  -" B4!p! B2 c2 | %18
 B3 A A4 |!<(! B6 c2!<)! |!>(! d4 B2 G2!>)! |!p! A3 A A7/2 G/ | G8 || z2 d2 d2 d2 | e4 d4 | %25
 d4 d2 d2 | %26
"^-о  -  на жи-вый во И-е -  ру-са-ли-ме, во     И  - е - ру  -  са    -    ли       -      ме.          Ал-ли-лу - и - а,""^-o  -   na  zhi-vyi   vo  I - ye - ru- sa- li-mye, vo      I   - ye - ru  -   sa     -     li         -       mye.         Al- li - lu  -  i  -  a," d4 B2 c2 | %27
!<(! d3 d d2 c2!<)! | B2 A2 B2 c2 |!f! d4 e2 e2 | f4 f4 | e8 |!>(! d6 z2!>)! |!mf! d3 c B2 A2 | %34
 G2 z2 z4 | %35
!f!"^Ал - ли-лу-и - а,         Ал- ли  - лу       -         и        -        -    а,      Ал-ли - лу - и - а,     Ал     -    ли - лу   -   и - а,""^Al  -  li - lu - i -  a,           Al -  li   -  lu         -          i          -         -     a,       Al - li  -  lu  -  i  - a,      Al       -     li   -  lu   -    i  -  a," g3 f e2 d2 | %36
 c4 c2 d2 | e8 |!>(! (d6 c2)!>)! | B4!p! B2 c2 | B3 A A4 |!<(! B6 c2!<)! |!>(! d4 B2 G2!>)! | %43
!p!"^Ал-ли-лу  -   и  -  а. __     Не по-ве-дай-те-ся   Гос  -   по - де  -   ви,      я - ко   благ,  я - ко  в век  ми-лость  Е -""^Al - li - lu    -   i   -   a, __     Nye po-vye-dai-tye-sya  Gos  -   po  - dye -   vi,       ya - ko   blag,  ya - ko  v vek   mi'- lost´   Ye -" A3 A A7/2 G/ | %44
 G2- G !fermata!z!f! d2 g2 | e2 d2 d2 d2 | d4 d2 d2 | d4 G2 d2 | (c2 B2) A2 G2 | F4 E2 EE | %50
"^-го.                     Ал - ли-лу- и -  а,                  Ал-ли-лу-и  - а,       Ал -ли - лу       -         и          -         а,     Ал-ли-""^- vo.                       Al  -  li - lu  - i  -   a,                    Al - li- lu - i   -  a,        Al  - li   -  lu        -           i            -          a,      Al - li -" D2 z2 z4 | %51
!mf! d3 c B2 A2 | G2 z2 z4 |!f! g3 f e2 d2 | c4 c2 d2 | e8 |!>(! (d6 c2)!>)! | B4!p! B2 c2 | %58
"^-лу-и - а,    Ал    -    ли - лу  -  и - а,  Ал-ли-лу  -   и  -   а.         Не по-ве-дай-те-ся  Бо  -   гу   не  -   бес -  но-му,""^-lu - i -  a,     Al      -     li  -   lu   -  i  - a,    Al - li- lu   -    i   -    a.         Nye po-bye-dai-tye-cya Bo  -   gu   ne   -    bes -   no-mu," B3 A A4 | %59
!<(! B6 c2!<)! |!>(! d4 B2 G2!>)! |!p! A3 A A7/2 G/ | G2- G !fermata!z!f! d2 g2 | e2 d2 d2 d2 | %64
 d4 d2 d2 | d4 G2 d2 | %66
"^я    -    ко в век   ми   -   лость  Е  -   го.                                                                                                  Aл     -    ли -""^ya   -    ko  v vyek  mi    -    lost´    Ye  -   vo.                                                                                                            Al       -     li  -" (c2 B2) A2 G2 | %67
 F4 E3 E | D2 z2 z4 | z8 | z4!f! F3 B | %71
"^-луи-а,         Aл  -   ли  - лу   -   и  -   а,   Aл-ли - лу     -     и        -        а, _____  Aл - ли   -  лу       -       и        -""^- lui - a,           Al   -    li    -  lu    -    i   -   a,    Al - li  -  lu       -      i         -          a, _____    Al -   li    -   lu         -        i          -" GE z2 A3 d | %72
 Bd gf edcB | A4 B4 | GBed cB AG | F4 G4 | %76
"^- a,       Aл        -       ли    -   лу   -   и      -   а,      Aл         -         -         -         -         -         -         -         -         -         -""^-  a,        Al         -         li      -    lu    -    i       -   a,         Al          -          -          -          -           -          -          -          -          -          -" E2 (A2 F2) B2 | %77
 G2 c2 A2!<(! (dc!<)! | B^cde defg |!ff! a8) | %80
"^- ли       -      лу -  и    -   а,                         Aл-ли-лу- и  -  а,                   Aл -ли-лу-и -  а,        Aл-ли  - лу  -""^-  li         -       lu  -   i     -    a,                            Al - li - lu -  i   -  a,                      Al - li - lu - i  -  a,          Al - li    -  lu  -" d4 AB c2 | %81
 d4- d2 !fermata!z2 |!mf! d3 c B2 A2 | G2 z2 z4 |!f! g3 f e2 d2 | c4 c2 d2 | e8 | %87
"^- и    -         -     а,       Aл-ли - лу -  и - а,       Aл     -     ли - лу  -   и  - а,     Aл  -  ли - лу  - и    -   а. _____""^-  i     -          -      a,        Al - li   - lu   -  i  - a,         Al      -       li  -  lu   -    i  -  a,       Al   -   li   - lu   -  i     -    a. ______"!>(! (d6 c2)!>)! | %88
 B4!p! B2 c2 | B3 A A4 |!<(! B6 c2!<)! |!>(! d4 B2 G2!>)! |!<(! A6 A2!<)! |!f! A4 A4 | %94
!>(! G8-!>)! |!p! G4 !fermata!z4 |] %96
V:2
!p! G2 | G4 G4 | F4 G2 A2 | B4 G2 G2 | G4 G2 A2 |!<(! (G3 F G2 A2)!<)! | (B2 A2) G4 | %7
!f! (F2 G2)"^ра-би    Гос - по -да,""^ra - bi     Gos -  po - da," A2 B2 | (^c2 B2) A2 G2 | %9
!>(! F6 F2!>)! |!p! F6 z2 |!mf! B3 A G2 F2 | G2 z2 z4 |!f! e3 d c2 B2 | A4 A2 B2 | (c2 B2 A2 G2) | %16
!>(! (F2 G2 A4)!>)! | %17
"^- а,    Ал-ли - лу - и - а,      Ал        -        -        -     ли - лу         -        и   -  а.          Бла-го-сло-вен Гос-подь от Си-""^-  a,     Al - li   - lu   - i  - a,       Al          -         -         -       li  -  lu           -         i    -   a.           Bla- go- slo-vyen God-pod'  ot  Si  -" G4!p! G2 A2 | %18
 G3 F F4 |!<(! G8-!<)! |!>(! G6 G2!>)! |!p! (G4 F7/2) G/ | G8 || z2 G2 G2 G2 | G4 G4 | F4 G2 A2 | %26
 B4 G2 G2 |!<(! G3 G G2 A2!<)! | G2 F2 G2 A2 |!f! (B2 A2) G2 G2 | (F2 G2) (A2 B2) | %31
 (^c2 B2 A2 G2) |!>(! F6 z2!>)! |!mf! B3 A G2 F2 | G2 z2 z4 | %35
!f!"^Ал - ли-лу-и - а,         Ал- ли  - лу       -         и        -        -    а,      Ал-ли - лу - и - а,     Ал        -        -        -     ли -""^Al  -  li - lu - i -  a,           Al -  li   -  lu         -          i          -         -     a,       Al - li  -  lu  -  i  - a,      Al          -         -         -       li  -" e3 d c2 B2 | %36
 A4 A2 B2 | (c2 B2 A2 G2) |!>(! (F2 G2 A4)!>)! | G4!p! G2 A2 | G3 F F4 |!<(! G8-!<)! | %42
!>(! G6 G2!>)! | %43
!p!"^-лу       -        и  -  а. __""^- lu        -         i   -   a, __" (G4 F7/2) G/ | %44
 G2- G !fermata!z!f! B2 d2 | c2 G2 F2 G2 | (A2 G2) F2 E2 | (D2 C2) B,2 B2 | G4 E2 E2 | %49
 D4 A,2 A,A, | D2 z2 z4 |!mf! B3 A G2 F2 | G2 z2 z4 |!f! e3 d c2 B2 | A4 A2 B2 | (c2 B2 A2 G2) | %56
!>(! (F2 G2 A4)!>)! | G4!p! G2 A2 | %58
"^-лу-и - а,     Ал     -        -        -     ли- лу        -        и   -  а.""^-lu - i -  a,      Al       -         -         -       li -  lu         -          i    -  a." G3 F F4 | %59
!<(! G8-!<)! |!>(! G6 G2!>)! |!p! (G4 F7/2) G/ | G2- G !fermata!z!f! B2 d2 | c2 G2 F2 G2 | %64
 (A2 G2) F2 E2 | (D2 C2) B,2 B2 | G4 E2 E2 | D4 A,2 A,2 | D2 z2 z4 | z8 | z4!f! FDEF | %71
"^-лу - и - а,     Aл  -  ли  - лу -и - а,     Aл - ли   -  лу  -  и  -  а, ____________      Aл - ли   -  лу -   и   -    а, ______""^- lu  - i  - a,       Al   -   li   -  lu  - i  - a,       Al  -  li    -   lu    -   i   -  a, _____________        Al  -  li    -   lu  -    i    -    a, _______" GE FG AFGA | %72
 GA B2 G2 E2 | E2 DE (FDEF | EF G2) E2 C2 | C2 B,C DB,CD | %76
"^Aл   -  ли  -  лу - и - а,         Aл   -  ли   -  лу - и - а,        Aл   -   ли    -  лу  -   и    -     а, ________   Aл  -   ли    -""^Al    -   li    -   lu  -  i  - a,           Al    -   li    -    lu  - i  -  a,         Al    -     li     -   lu   -    i      -     a, _________    Al   -    li      -" ED CE FE DF | %77
 GF EG DE!<(! F2!<)! | G2 FE A2 d2 |!ff! d^cBA GF E^C | %80
"^- лу - и    -    а, ________________          Aл-ли -лу- и  -  а,                  Aл - ли-лу-и  - а,        Aл-ли - лу      -""^-  lu  - i      -    a, __________________           Al - li  - lu -  i   -  a,                     Al  -  li - lu - i  -  a,         Al - li   -  lu       -" DE FG (A2 E2 | %81
 DBAG F2) !fermata!z2 |!mf! B3 A G2 F2 | G2 z2 z4 |!f! e3 d c2 B2 | A4 A2 B2 | (c2 B2 A2 G2) | %87
"^- и    -         -     а,       Aл-ли - лу -  и - а,       Aл     -         -         -        ли - лу       -       и       -       а. ______""^-  i     -          -      a,        Al -  li -  lu  -   i  - a,         Al      -          -          -          li  -  lu         -        i        -         a. ______"!>(! (F2 G2 A4)!>)! | %88
 G4!p! G2 A2 | G3 F F4 |!<(! G8-!<)! |!>(! G6 G2!>)! |!<(! G8!<)! |!f! F8 |!>(! D8-!>)! | %95
!p! D4 !fermata!z4 |] %96
V:3
!p!"^Хва-ли- те   и - мя  Гос-под-не, хва-ли- те ра - би _______    Гос -  по    -    да,      ра   -    би,      ра-би""^Khva-li - tye   i - mya Gos-pod-nye, khva-li-tye  ra  -  bi ________     Gos -   po    -     da,       ra    -     bi,        ra - bi" B2 | %1
 B4 B4 | A4 G2 d2 |!<(! (d2 g2)!>(! f2 e2!<)!!>)! | d4 d2 e2 |!<(! (e4 d2 c2)!<)! | B4 B2 ^c2 | %7
!f! d4 d4 | (^c2 d2) c2 B2 | %9
"^Гос - по - да,                                      Ал - ли-лу - и  -  а,                     Ал -ли-лу-и   -  а,      Ал - ли - лу    -     и  -""^Gos -  po -  da,                                          Al   -  li - lu  -  i  -   a,                       Al  -  li - lu- i    -   a,       Al  -  li   -  lu     -      i   -"!>(! A6 A2!>)! | %10
!p! A6 z2 | z8 |!mf! d3 c B2 A2 | G2 z2 z4 |!f! g3 f e2 d2 | (c2 d2) c2 B2 |!>(! A6 e2!>)! | %17
"^- а,    Ал-ли - лу - и - а,      Ал     -    ли - лу  -   и  - а,   Ал-ли-лу-и      -     а.         Бла-го-сло-вен Гос-подь от Си-""^-  a,     Al - li   - lu   - i  - a,       Al       -      li  -  lu   -    i  -  a,    Al - li - lu - i       -      a.          Bla- go- slo-vyen God-pod'  ot  Si  -" d4!p! e2 e2 | %18
 d3 d d4 |!<(! (G2 g2 f2) e2!<)! |!>(! (d2 c2) B2 B2!>)! |!p! e3 e d2 c2 | B8 || z2 B2 B2 B2 | %24
 B4 B4 | A4 G2 d2 | %26
"^-о  -  на жи-вый во И-е -  ру-са-ли-ме, во     И  - е - ру  -  са    -    ли       -      ме.                                 Ал-ли-лу-и -""^-o  -   na  zhi-vyi   vo  I - ye - ru- sa- li-mye, vo      I   - ye - ru  -   sa     -     li         -       mye.                                   Al - li - lu - i -"!<(! (d2 g2)!>(! f2 e2!<)!!>)! | %27
!<(! d3 d d2 e2!<)! | e2 e2 d2 c2 |!f! B4 B2 ^c2 | d4 d4 | (^c2 d2 c2 B2) |!>(! A6 z2!>)! | z8 | %34
!mf! d3 c B2 A2 | %35
"^- а,                  Ал -ли-лу - и  -   а,     Ал-ли - лу    -     и    -   а,      Ал-ли-лу  - и - а,      Ал     -     ли - лу  -   и - a,""^- a,                     Al -  li - lu  -  i   -   a,      Al -  li  -  lu     -      i     -    a,       Al -  li - lu  -  i  - a,       Al       -       li  -  lu   -    i  - a," G2 z2 z4 | %36
!f! g3 f e2 d2 | (c2 d2) c2 B2 |!>(! A6 e2!>)! | d4!p! e2 e2 | d3 d d4 |!<(! (G2 !>!g2 f2) e2!<)! | %42
!>(! (d2 c2) B2 B2!>)! | %43
!p!"^Ал-ли-лу-и    -     а. __     Не по-ве-дай-те-ся   Гос  -   по - де  -   ви,      я - ко   благ,  я - ко  в век  ми-лость  Е -""^Al - li - lu - i     -      a, __     Nye po-vye-dai-tye-sya  Gos  -   po  - dye -   vi,       ya - ko   blag,  ya - ko  v vek   mi'- lost´   Ye -" e3 e d2 c2 | %44
 B2- B !fermata!z!f! G2 g2 | g2 d2 c2 B2 | A4 Ad ef | g4 g2 f2 | (e2 d2) c2 B2 | (A2 B2) d2 ^cc | %50
"^-го. Ал-ли-лу-и- а,                     Ал-ли-лу-и  - а,                  Ал -ли-лу - и  -  а,    Ал-ли - лу   -   и    -   а,     Ал-ли-""^-vo.  Al - li - lu- i -  a,                       Al - li - lu - i  -  a,                     Al  - li - lu  -  i   -  a,     Al -  li -  lu     -    i    -    a,      Al - li -" d2!mf! FF G2 A2 | %51
 B2 z2 z4 |!mf! d3 c B2 A2 | G2 z2 z4 |!f! g3 f e2 d2 | (c2 d2) c2 B2 |!>(! A6 e2!>)! | %57
 d4!p! e2 e2 | %58
"^-лу-и - а,    Ал    -    ли - лу  -  и - а,  Ал-ли-лу- и    -   а.           Не по-ве-дай-те-ся  Бо  -   гу   не  -   бес -  но-му,""^-lu - i -  a,     Al      -     li  -   lu   -  i  - a,   Al - li - lu  - i     -    a.           Nye po-bye-dai-tye-cya Bo  -   gu   ne   -    bes -   no-mu," d3 d d4 | %59
!<(! (G2 !>!g2 f2) e2!<)! |!>(! (d2 c2) B2 B2!>)! |!p! e3 e d2 c2 | B2- B !fermata!z!f! G2 g2 | %63
 g2 d2 c2 B2 | A4 Ad ef | g4 g2 f2 | %66
"^я    -    ко в век  ми  -  лость  Е   -    го.              Aл    -     ли -луи-а,          Aл    -    ли  - лу   -   и   -    а,     Aл- ли -""^ya   -    ko v vyek  mi   -   lost´    Ye   -    vo.                Al     -       li -  lui - a,            Al     -      li   -  lu    -    i    -     a.      Al -  li  -" (e2 d2) c2 B2 | %67
 (A2 B2) d2 ^c2 | d2 z2!f! B3 e | dB z2 d3 g | ec de fBcd | %71
"^-лу       -        и         -       а, ______   Aл -  ли  -  лу      -      и        -       а, _____  Aл - ли  -  лу       -        и      -""^- lu        -          i          -         a, ______     Al  -   li    -   lu       -       i          -        a, _____    Al  -  li    -   lu        -          i       -" ecde fdef | %72
 gfed cB AB | c4 B4 | edcB AG FG | A4 G4 | %76
"^- a,     Aл        -        ли    -   лу   -   и    -    а,        Aл     -        -    ли   -   лу     -     и  -  а, ________  Aл    -   ли   -""^- a,      Al          -          li      -   lu    -    i      -    a,          Al      -         -      li    -    lu       -      i   -  a, _________   Al     -     li    -" G2 (e2 A2) f2 | %77
 B2 g2 c2!<(! (BA!<)! | GA) B^c d3 e |!ff! (f3 e) d^c BG | %80
"^-лу  - и - а,  Aл   -   ли - лу - и  -  а,                                  Aл -ли-лу- и  - а,                  Aл - ли-лу -и  -  а,     Aл-ли -""^- lu   - i  -  a,  Al     -    li  -  lu  -  i   -  a,                                       Al  - li - lu - i  -  a,                     Al  -  li  - lu - i   -  a,       Al - li  -" A2 AA (d2 a)g | %81
 fg fe d2 z2 | z8 |!mf! d3 c B2 A2 | G2 z2 z4 |!f! g3 f e2 d2 | (c2 d2) c2 B2 | %87
"^-лу     -    и   -   а,       Aл-ли- лу -  и - а,       Aл     -     ли - лу   -   и  - а,    Aл   -  ли - лу   -   и  - а. ______""^- lu      -     i    -    a,         Al - li -  lu  -  i  - a,         Al      -       li   -  lu    -   i   -  a,     Al    -   li   - lu     -    i  -  a. _______"!>(! A6 e2!>)! | %88
 d4!p! e2 e2 | d3 d d4 |!<(! (G2 !>!g2 f2) e2!<)! |!>(! (d2 c2) B2 B2!>)! |!<(! e6 e2!<)! | %93
!f! d6 c2 |!>(! B8-!>)! |!p! B4 !fermata!z4 |] %96
V:4
!p! G,2 | E,4 G,4 | D,4 E,2 F,2 | G,4 G,,2 A,,2 | B,,4 B,,2 A,,2 |!<(! (E,3 C B,2 A,2)!<)! | %6
 (G,2 F,2) E,4 |!f! (D,2 E,2)"^ра-би  Гос - по -да,""^ra - bi   Gos -  po - da," F,2 G,2 | %8
 A,3 A, A,4 | %9
"^Polyelaion\nGreek Chant\nAll-Night Vigil, Opus 50, No. 8\nP. I. Tchaikovsky, 1885""^Гос - по - да,                                      Ал - ли-лу - и  -  а,                     Ал -ли-лу- и   -  а,                  Ал-ли-лу -   и -""^Gos -  po -  da,                                          Al   -  li - lu  - i   -  a,                         Al  - li - lu  - i   -   a,                     Al - li - lu  -   i   -"!>(! D,6 D,2!>)! | %10
!p! D,6 z2 | z8 |!mf! B,3 A, G,2 F,2 | E,2 z2 z4 |!f! C3 B, A,2 G,2 | A,8 | %16
!>(! D,2 E,2 F,3 F,!>)! | (G,2 F,2)!p! E,2 A,,2 | B,,3 D, D,4 |!<(! G,,6 A,,2!<)! | %20
!>(! (B,,2 C,2) D,2 E,2!>)! |!p! C,3 C, D,3 D, | [G,,G,]8 || z2 G,2 G,2 G,2 | E,4 G,4 | %25
 D,4 E,2 F,2 | G,4 G,,2 A,,2 |!<(! B,,3 B,, B,,2 A,,2!<)! | E,2 C2 B,2 A,2 |!f! (G,2 F,2) E,2 E,2 | %30
 (D,2 E,2) (F,2 G,2) | A,8 |!>(! D,6 z2!>)! | z8 |!mf! B,3 A, G,2 F,2 | %35
"^- а,                  Ал -ли-лу - и   -   а,                 Ал-ли-лу -  и - а,      Ал-ли - лу - и - а,       Ал     -    ли - лу  -  и - а,""^- a,                     Al -  li - lu  -  i    -   a,                    Al - li - lu  -   i -  a,       Al - li   -  lu  - i  - a,         Al      -      li  -  lu   -   i  - a," E,2 z2 z4 | %36
!f! E3 D C2 B,2 | A,8 |!>(! D,2 E,2 F,3 F,!>)! | (G,2 F,2)!p! E,2 A,,2 | B,,3 D, D,4 | %41
!<(! G,,6 A,,2!<)! |!>(! (B,,2 C,2) D,2 E,2!>)! |!p! C,3 C, D,3 D, | %44
 (([G,,G,]2 [G,,G,])) !fermata!z!f! G,2 B,2 | C2 B,2 A,2 G,2 | (F,2 E,2) D,2 C,2 | %47
 (B,,2 A,,2) G,,2 B,,2 | (C,2 D,2) E,3 E, | (F,2 G,2) A,2 A,,2 | D,2!mf! D,D, E,2 F,2 | G,2 z2 z4 | %52
!mf! B,3 A, G,2 F,2 | E,2 z2 z4 |!f! E3 D C2 B,2 | A,8 | %56
"^Ал-ли-лу -и - а,     Ал-ли-""^Al - li - lu - i -  a,       Al - li -"!>(! D,2 E,2 F,3 F,!>)! | %57
 (G,2 F,2)!p! E,2 A,,2 | B,,3 D, D,4 |!<(! G,,6 A,,2!<)! |!>(! (B,,2 C,2) D,2 E,2!>)! | %61
!p! C,3 C, D,3 D, | (([G,,G,]2 [G,,G,])) !fermata!z!f! G,2 B,2 | C2 B,2 A,2 G,2 | %64
 (F,2 E,2) D,2 C,2 | (B,,2 A,,2) G,,2 B,,2 | (C,2 D,2) E,3 E, | (F,2 G,2) A,2 A,,2 | %68
 D,!f!"^Aл    -        -      ли   -  лу   -   и   -   а,     Aл-ли - лу   -  и   -    а,""^Al      -         -       li     -   lu    -    i    -    a,      Al -  li  - lu     -  i    -     a," D,E,F,G,E, F,G, | %69
 A,F, G,A, B,G,A,B, | CA, B,C D z z2 | %71
 z4!f!"^Aл   -  ли - лу       -        и        -       а,  Aл -ли- лу - и  -   а,    Aл-ли-лу - и   -    а, Aл  - ли- лу  -  и   -""^Al    -   li   - lu         -          i         -        a,   Al  - li  - lu  -  i   -    a,     Al - li - lu  -  i   -     a,  Al   -  li  -  lu  -   i    -" D3 D | %72
 G,4 G,4 | G, G,F,E, D,B,, C,D, | E,2 E,E, E,2 E,2 | E, E,D,C, B,,G,, A,,B,, | %76
"^- а,     Aл-ли-лу   -   и     -    а,       Aл-ли-лу   -   и     -    а,                    Aл  -  ли    -    лу      -      и - a, _________""^- a,      Al - li  - lu   -    i       -    a,         Al - li - lu    -    i      -     a,                      Al    -   li      -     lu       -       i  -  a, __________" C,B,,A,,C, D,C, B,,D, | %77
 E,D,C,E, F,E,!<(! D,2!<)! | G,4 F,E, D,2 |!ff! D3 ^C B,A,G,E, | %80
"^Aл -  ли   -   лу  - и   -    а, _______                                  Aл -ли-лу-и  - а,                   Aл - ли-лу - и -  а,""^Al   -   li    -    lu   -  i    -     a,                                                       Al - li - lu - i  -  a,                      Al  -  li  - lu - i   -  a," F,E, D,E, F,G, A,2 | %81
 D,4- D,2 z2 | z8 |!mf! B,3 A, G,2 F,2 | C,2 z2 z4 |!f! E3 D C2 B,2 | A,8 | %87
"^Aл-ли-лу - и -  а, __  Aл-ли - лу- и  - а,       Aл     -     ли - лу   -  и  - а,    Aл - ли   -  лу - и    -    а. ______""^Al - li - lu  -  i  -  a,  __   Al - li  -  lu -  i  -  a,         Al      -      li   -  lu    -   i  -  a,     Al  -  li     -   lu  - i      -    a. _______"!>(! D,2 E,2 F,3 F,!>)! | %88
 (G,2 F,2)!p! E,2 A,,2 | B,,3 D, D,4 |!<(! G,,6 A,,2!<)! |!>(! (B,,2 C,2) D,2 E,2!>)! | %92
!<(! C,4 C4!<)! |!f! D4 D,4 |!>(! [G,,G,]8-!>)! |!p! [G,,G,]4 !fermata!z4 |] %96

